app/assets/images/heroicons/micro/document-currency-dollar.svg

<svg width="16" height="16" viewBox="0 0 16 16" fill="none" xmlns="http://www.w3.org/2000/svg">
<path d="M6.62118 6.58357C6.82903 6.55819 7.03869 6.53847 7.25 6.52458V7.55751L6.65242 7.41951C6.59937 7.40725 6.55977 7.38108 6.5364 7.35545C6.5151 7.33208 6.50909 7.31235 6.50814 7.29518C6.50274 7.19755 6.5 7.09913 6.5 7C6.5 6.89204 6.50325 6.78493 6.50964 6.67876C6.51082 6.65916 6.51806 6.64123 6.53517 6.62377C6.55356 6.60499 6.58281 6.58826 6.62118 6.58357Z" fill="black"/>
<path d="M8.75 10.4752V9.44339L9.34367 9.58049C9.39672 9.59274 9.43633 9.61892 9.45969 9.64455C9.481 9.66792 9.48701 9.68765 9.48796 9.70482C9.49335 9.80245 9.49609 9.90087 9.49609 10C9.49609 10.108 9.49285 10.2151 9.48645 10.3212C9.48527 10.3408 9.47803 10.3588 9.46093 10.3762C9.44253 10.395 9.41328 10.4117 9.37491 10.4164C9.16835 10.4417 8.95999 10.4613 8.75 10.4752Z" fill="black"/>
<path fill-rule="evenodd" clip-rule="evenodd" d="M2.5 3.5C2.5 2.67157 3.17157 2 4 2H8.87868C9.2765 2 9.65804 2.15804 9.93934 2.43934L13.0607 5.56066C13.342 5.84197 13.5 6.2235 13.5 6.62132V12.5C13.5 13.3284 12.8284 14 12 14H4C3.17157 14 2.5 13.3284 2.5 12.5V3.5ZM8.75 4.75C8.75 4.33579 8.41421 4 8 4C7.58579 4 7.25 4.33579 7.25 4.75V5.02172C6.97748 5.03754 6.70717 5.06193 6.43935 5.09464C5.69181 5.18593 5.06083 5.78373 5.01236 6.58858C5.00415 6.72476 5 6.86194 5 7C5 7.12677 5.0035 7.25281 5.01043 7.378C5.05384 8.1631 5.6453 8.7264 6.3149 8.88104L7.25 9.09699V10.4757C6.78821 10.4455 6.33428 10.3874 5.88983 10.3033C5.48284 10.2262 5.09046 10.4937 5.0134 10.9007C4.93635 11.3077 5.20382 11.7001 5.6108 11.7771C6.14638 11.8785 6.69356 11.9464 7.25 11.9785V12.25C7.25 12.6642 7.58579 13 8 13C8.41421 13 8.75 12.6642 8.75 12.25V11.9781C9.0212 11.9622 9.2902 11.9379 9.55674 11.9054C10.3043 11.8141 10.9353 11.2163 10.9837 10.4114C10.9919 10.2752 10.9961 10.1381 10.9961 10C10.9961 9.87323 10.9926 9.74719 10.9857 9.622C10.9423 8.8369 10.3508 8.2736 9.68119 8.11896L8.75 7.90391V6.52458C9.21045 6.55485 9.66307 6.6128 10.1063 6.6967C10.5133 6.77375 10.9056 6.50629 10.9827 6.09931C11.0597 5.69232 10.7923 5.29993 10.3853 5.22288C9.85097 5.12173 9.3051 5.05394 8.75 5.02172V4.75Z" fill="black"/>
</svg>

<svg xmlns="http://www.w3.org/2000/svg" viewBox="0 0 16 16" fill="currentColor" aria-hidden="true" data-slot="icon">
  <path d="M6.621 6.584c.208-.026.418-.046.629-.06v1.034l-.598-.138a.227.227 0 0 1-.116-.065.094.094 0 0 1-.028-.06 5.345 5.345 0 0 1 .002-.616.082.082 0 0 1 .025-.055.144.144 0 0 1 .086-.04ZM8.75 10.475V9.443l.594.137a.227.227 0 0 1 .116.065.094.094 0 0 1 .028.06 5.355 5.355 0 0 1-.002.616.082.082 0 0 1-.025.055.144.144 0 0 1-.086.04c-.207.026-.415.045-.625.06Z"/>
  <path fill-rule="evenodd" d="M2.5 3.5A1.5 1.5 0 0 1 4 2h4.879a1.5 1.5 0 0 1 1.06.44l3.122 3.12a1.5 1.5 0 0 1 .439 1.061V12.5A1.5 1.5 0 0 1 12 14H4a1.5 1.5 0 0 1-1.5-1.5v-9Zm6.25 1.25a.75.75 0 0 0-1.5 0v.272c-.273.016-.543.04-.81.073-.748.09-1.38.689-1.428 1.494a6.836 6.836 0 0 0-.002.789c.044.785.635 1.348 1.305 1.503l.935.216v1.379a11.27 11.27 0 0 1-1.36-.173.75.75 0 1 0-.28 1.474c.536.102 1.084.17 1.64.202v.271a.75.75 0 0 0 1.5 0v-.272c.271-.016.54-.04.807-.073.747-.09 1.378-.689 1.427-1.494a6.843 6.843 0 0 0 .002-.789c-.044-.785-.635-1.348-1.305-1.503l-.931-.215v-1.38c.46.03.913.089 1.356.173a.75.75 0 0 0 .28-1.474 12.767 12.767 0 0 0-1.636-.201V4.75Z" clip-rule="evenodd"/>
</svg>
